X: 1
T: Man With Two Women, The
M: 4/4
L: 1/8
K: Dmaj
|:agfa-aafa|gece Aceg|agfa-aafa|gecA Bcde:|
|:ABcd e/e/e ag|fecd efec|ABcd e/e/e ag|fecA BcdB:|
